assets/IMG/arright.svg

<svg width="29" height="59" viewBox="0 0 29 59" fill="none" xmlns="http://www.w3.org/2000/svg">
<path d="M3.20861 59.0003C2.88508 59.0022 2.56436 58.9402 2.26484 58.8178C1.96532 58.6955 1.6929 58.5152 1.46319 58.2874C1.23278 58.0588 1.04989 57.7869 0.925086 57.4874C0.80028 57.1878 0.736023 56.8665 0.736023 56.542C0.736023 56.2174 0.80028 55.8961 0.925086 55.5965C1.04989 55.297 1.23278 55.0251 1.46319 54.7965L21.5478 34.712C22.9289 33.3291 23.7046 31.4547 23.7046 29.5003C23.7046 27.5459 22.9289 25.6714 21.5478 24.2886L1.46319 4.20404C1.00028 3.74113 0.740218 3.11328 0.740218 2.45863C0.740218 1.80397 1.00028 1.17612 1.46319 0.71321C1.92611 0.250296 2.55395 -0.00976562 3.20861 -0.00976562C3.86327 -0.00976563 4.49111 0.250296 4.95403 0.71321L25.0386 20.7978C26.1833 21.9396 27.0915 23.296 27.7111 24.7893C28.3308 26.2826 28.6498 27.8835 28.6498 29.5003C28.6498 31.1171 28.3308 32.718 27.7111 34.2113C27.0915 35.7046 26.1833 37.061 25.0386 38.2028L4.95403 58.2874C4.72432 58.5152 4.4519 58.6955 4.15238 58.8178C3.85286 58.9402 3.53214 59.0022 3.20861 59.0003Z" fill="#080809"/>
</svg>

<?xml version="1.0" encoding="utf-8"?>
<!-- Generator: Adobe Illustrator 25.2.3, SVG Export Plug-In . SVG Version: 6.00 Build 0)  -->
<svg version="1.1" id="Слой_1" xmlns="http://www.w3.org/2000/svg" xmlns:xlink="http://www.w3.org/1999/xlink" x="0px" y="0px"
	 viewBox="0 0 29 59" style="enable-background:new 0 0 29 59;" xml:space="preserve">
<style type="text/css">
	.st0{fill:#353F63;}
</style>
<path class="st0" d="M3.2,59c-0.3,0-0.6-0.1-0.9-0.2c-0.3-0.1-0.6-0.3-0.8-0.5c-0.2-0.2-0.4-0.5-0.5-0.8c-0.1-0.3-0.2-0.6-0.2-0.9
	c0-0.3,0.1-0.6,0.2-0.9C1,55.3,1.2,55,1.5,54.8l20.1-20.1c1.4-1.4,2.2-3.3,2.2-5.2s-0.8-3.8-2.2-5.2L1.5,4.2C1,3.7,0.7,3.1,0.7,2.5
	c0-0.7,0.3-1.3,0.7-1.7C1.9,0.3,2.6,0,3.2,0C3.9,0,4.5,0.3,5,0.7L25,20.8c1.1,1.1,2.1,2.5,2.7,4c0.6,1.5,0.9,3.1,0.9,4.7
	s-0.3,3.2-0.9,4.7c-0.6,1.5-1.5,2.8-2.7,4L5,58.3c-0.2,0.2-0.5,0.4-0.8,0.5C3.9,58.9,3.5,59,3.2,59z"/>
</svg>
